X:11
T: Ritter und Magd
N: Q0055J
O: Osteuropa, Ungarn, Nemetker Komitat Tolnau
N: Zweistimmig notiert. Oberstimme kodiert.
R: Ballade, Betrug, Schwangerschaft, Tod, Selbstmord, Herr und Magd
M: 6/4
L: 1/8
K: G
B2 | d4d2d2B2A2 | G4B2B2B2
d2 | A4B2c2d3c | c2B2z6
d2 | d4g2g4g2 | g2a2g2f2d2
c2 | B4d2g4B2 | e2d2z6
d2 | d4g2b4a2 | a2g2z6

